Aagedal Photo Agent Tests/Fixtures/EditorialMetadata/preservation-complex.xmp
<?xpacket begin="﻿" id="W5M0MpCehiHzreSzNTczkc9d"?>
<x:xmpmeta xmlns:x="adobe:ns:meta/" x:xmptk="Aagedal Photo Agent fixture">
 <rdf:RDF xmlns:rdf="http://www.w3.org/1999/02/22-rdf-syntax-ns#">
  <rdf:Description rdf:about=""
   xmlns:dc="http://purl.org/dc/elements/1.1/"
   xmlns:xmpRights="http://ns.adobe.com/xap/1.0/rights/"
   xmlns:photoshop="http://ns.adobe.com/photoshop/1.0/"
   xmlns:Iptc4xmpCore="http://iptc.org/std/Iptc4xmpCore/1.0/xmlns/"
   xmlns:Iptc4xmpExt="http://iptc.org/std/Iptc4xmpExt/2008-02-29/"
   xmlns:crs="http://ns.adobe.com/camera-raw-settings/1.0/"
   xmlns:newsroom="https://aagedal.example/ns/newsroom/1.0/"
   photoshop:Headline="Council approves emergency harbor plan"
   photoshop:CaptionWriter="Night Desk"
   photoshop:Urgency="2"
   Iptc4xmpCore:CountryCode="NOR"
   Iptc4xmpExt:DigitalSourceType="http://cv.iptc.org/newscodes/digitalsourcetype/digitalCapture"
   crs:Texture="+18"
   newsroom:Desk="International">
   <dc:title><rdf:Alt><rdf:li xml:lang="x-default">Harbor vote</rdf:li></rdf:Alt></dc:title>
   <dc:description><rdf:Alt><rdf:li xml:lang="x-default">OSLO, NORWAY — Councillors vote during an emergency meeting.
Names: Kari Nordmann, Ola Nordmann; punctuation survives.</rdf:li></rdf:Alt></dc:description>
   <dc:creator><rdf:Seq><rdf:li>Alex Example</rdf:li><rdf:li>Sam Example</rdf:li></rdf:Seq></dc:creator>
   <dc:subject><rdf:Bag><rdf:li>politics</rdf:li><rdf:li>Oslo</rdf:li><rdf:li>harbor, planning</rdf:li></rdf:Bag></dc:subject>
   <Iptc4xmpExt:PersonInImage><rdf:Bag><rdf:li>Kari Nordmann</rdf:li><rdf:li>Ola Nordmann</rdf:li></rdf:Bag></Iptc4xmpExt:PersonInImage>
   <Iptc4xmpExt:OrganisationInImageName><rdf:Bag><rdf:li>Oslo City Council</rdf:li><rdf:li>Harbor Authority</rdf:li></rdf:Bag></Iptc4xmpExt:OrganisationInImageName>
   <Iptc4xmpExt:OrganisationInImageCode><rdf:Bag><rdf:li>OCC</rdf:li><rdf:li>NO-HARBOR</rdf:li></rdf:Bag></Iptc4xmpExt:OrganisationInImageCode>
   <Iptc4xmpCore:Scene><rdf:Bag><rdf:li>011200</rdf:li><rdf:li>012900</rdf:li></rdf:Bag></Iptc4xmpCore:Scene>
   <xmpRights:UsageTerms><rdf:Alt><rdf:li xml:lang="x-default">Editorial use only</rdf:li></rdf:Alt></xmpRights:UsageTerms>
   <newsroom:WireIDs><rdf:Bag><rdf:li>APA-2026-0001</rdf:li><rdf:li>DESK-42</rdf:li></rdf:Bag></newsroom:WireIDs>
   <Iptc4xmpExt:LocationShown><rdf:Bag>
    <rdf:li><rdf:Description Iptc4xmpExt:City="Oslo" Iptc4xmpExt:CountryCode="NOR" Iptc4xmpExt:Sublocation="City Hall"/></rdf:li>
    <rdf:li><rdf:Description Iptc4xmpExt:City="Oslo" Iptc4xmpExt:CountryCode="NOR" Iptc4xmpExt:Sublocation="Harbor"/></rdf:li>
   </rdf:Bag></Iptc4xmpExt:LocationShown>
  </rdf:Description>
 </rdf:RDF>
</x:xmpmeta>
<?xpacket end="w"?>
